icons/accessibility-16.svg

<svg xmlns="http://www.w3.org/2000/svg" width="16" height="16" viewBox="0 0 16 16"><path d="M9.923 5.302c.063.063.122.129.178.198H14A.75.75 0 0114 7h-3.3l.578 5.163.362 2.997a.75.75 0 01-1.49.18L9.868 13H6.132l-.282 2.34a.75.75 0 01-1.49-.18l.362-2.997L5.3 7H2a.75.75 0 010-1.5h3.9a2.54 2.54 0 01.176-.198 3 3 0 113.847 0zM9.2 7.073h-.001a1.206 1.206 0 00-2.398 0L6.305 11.5h3.39zM9.5 3a1.5 1.5 0 10-3.001.001A1.5 1.5 0 009.5 3z"/></svg>

<svg xmlns="http://www.w3.org/2000/svg" width="16" height="16" viewBox="0 0 16 16">
  <defs/>
  <path d="M9.923,5.302 C9.986,5.365 10.045,5.431 10.101,5.5 L14,5.5 C14.414,5.5 14.75,5.836 14.75,6.25 C14.75,6.664 14.414,7 14,7 L10.7,7 L11.278,12.163 L11.64,15.16 C11.69,15.571 11.396,15.945 10.985,15.995 C10.574,16.045 10.2,15.751 10.15,15.34 L9.868,13 L6.132,13 L5.85,15.34 C5.8,15.751 5.426,16.045 5.015,15.995 C4.604,15.945 4.31,15.571 4.36,15.16 L4.722,12.163 L5.3,7 L2,7 C1.586,7 1.25,6.664 1.25,6.25 C1.25,5.836 1.586,5.5 2,5.5 L5.9,5.5 C5.955,5.431 6.014,5.365 6.076,5.302 C5.107,4.493 4.749,3.163 5.179,1.977 C5.61,0.79 6.737,0 7.999,0 C9.262,0 10.389,0.79 10.82,1.977 C11.25,3.163 10.892,4.493 9.923,5.302 Z M9.2,7.073 L9.199,7.073 C9.129,6.464 8.613,6.005 8,6.005 C7.387,6.005 6.871,6.464 6.801,7.073 L6.305,11.5 L9.695,11.5 Z M9.5,3 C9.5,2.172 8.828,1.5 8,1.5 C7.172,1.5 6.5,2.172 6.5,3 C6.5,3.828 7.172,4.5 8,4.5 C8.828,4.5 9.5,3.828 9.5,3 Z"/>
</svg>
